icons/alarm-line.svg

<svg viewBox="0 0 24 24" fill="currentColor" xmlns="http://www.w3.org/2000/svg"><path d="M12.0001 22.0001C7.02956 22.0001 3.00012 17.9707 3.00012 13.0001C3.00012 8.02956 7.02956 4.00012 12.0001 4.00012C16.9707 4.00012 21.0001 8.02956 21.0001 13.0001C21.0001 17.9707 16.9707 22.0001 12.0001 22.0001ZM12.0001 20.0001C15.8661 20.0001 19.0001 16.8661 19.0001 13.0001C19.0001 9.13412 15.8661 6.00012 12.0001 6.00012C8.13412 6.00012 5.00012 9.13412 5.00012 13.0001C5.00012 16.8661 8.13412 20.0001 12.0001 20.0001ZM13.0001 13.0001H16.0001V15.0001H11.0001V8.00012H13.0001V13.0001ZM1.74707 6.2826L5.2826 2.74707L6.69682 4.16128L3.16128 7.69682L1.74707 6.2826ZM18.7176 2.74707L22.2532 6.2826L20.839 7.69682L17.3034 4.16128L18.7176 2.74707Z"/></svg>

<svg xmlns="http://www.w3.org/2000/svg" viewBox="0 0 24 24">
    <g>
        <path fill="none" d="M0 0h24v24H0z"/>
        <path d="M12 22a9 9 0 1 1 0-18 9 9 0 0 1 0 18zm0-2a7 7 0 1 0 0-14 7 7 0 0 0 0 14zm1-7h3v2h-5V8h2v5zM1.747 6.282l3.535-3.535 1.415 1.414L3.16 7.697 1.747 6.282zm16.97-3.535l3.536 3.535-1.414 1.415-3.536-3.536 1.415-1.414z"/>
    </g>
</svg>
